src/pos-icons/microsoft-visual-studio.svg

<svg height="24" viewBox="0 0 24 24" width="24" xmlns="http://www.w3.org/2000/svg"><path d="m17 8.5-4.75 3.82 4.75 3.68zm-12.3 9.9-2.7-1.7v-9l3-1 4.3 3.33 8.7-8.03 4 2.5v15.5l-5 2-7.66-7.34zm.3-4.4 1.86-1.72-1.86-1.78z"/></svg>

<?xml version="1.0" encoding="UTF-8"?><!DOCTYPE svg PUBLIC "-//W3C//DTD SVG 1.1//EN" "http://www.w3.org/Graphics/SVG/1.1/DTD/svg11.dtd"><svg xmlns="http://www.w3.org/2000/svg" xmlns:xlink="http://www.w3.org/1999/xlink" version="1.1" id="mdi-microsoft-visual-studio" width="24" height="24" viewBox="0 0 24 24"><path d="M17,8.5L12.25,12.32L17,16V8.5M4.7,18.4L2,16.7V7.7L5,6.7L9.3,10.03L18,2L22,4.5V20L17,22L9.34,14.66L4.7,18.4M5,14L6.86,12.28L5,10.5V14Z" /></svg>
